svgs/sharp-solid/phone-office.svg

<svg xmlns="http://www.w3.org/2000/svg" viewBox="0 0 576 512"><!--! Font Awesome Pro 6.6.0 by @fontawesome - https://fontawesome.com License - https://fontawesome.com/license (Commercial License) Copyright 2024 Fonticons, Inc. --><path d="M224 0L96 0l0 32 0 352 0 32 32 0 64 0 32 0 0-32 0-352 0-32zM64 32L0 32 0 512l576 0 0-480L256 32l0 384 0 32-32 0L96 448l-32 0 0-32L64 32zM320 96l192 0 0 96-192 0 0-96zm64 160l0 64-64 0 0-64 64 0zm64 0l64 0 0 64-64 0 0-64zm64 128l0 64-64 0 0-64 64 0zm-192 0l64 0 0 64-64 0 0-64z"/></svg>

<svg xmlns="http://www.w3.org/2000/svg" viewBox="0 0 576 512"><!--! Font Awesome Pro 6.4.0 by @fontawesome - https://fontawesome.com License - https://fontawesome.com/license (Commercial License) Copyright 2023 Fonticons, Inc. --><path d="M224 0H96V32 384v32h32 64 32V384 32 0zM64 32H0V512H576V32H256V416v32H224 96 64V416 32zM320 96H512v96H320V96zm64 160v64H320V256h64zm64 0h64v64H448V256zm64 128v64H448V384h64zm-192 0h64v64H320V384z"/></svg>
